<?xml version="1.0" encoding="UTF-8"?>
<map version="1.5" tiledversion="1.7.2" orientation="orthogonal" renderorder="left-up" width="90" height="23" tilewidth="16" tileheight="34" infinite="0" nextlayerid="9" nextobjectid="39">
 <properties>
  <property name="Color" type="color" value="#ff4fecec"/>
  <property name="LootTableName" value="Mraumir"/>
  <property name="NameToken" value="MapMraumir"/>
 </properties>
 <tileset firstgid="1" name="Consolas1" tilewidth="16" tileheight="34" spacing="1" tilecount="1015" columns="35">
  <image source="../Tilesets/Fonts/test/spacing/Consolas_0.png" width="600" height="1024"/>
  <tile id="2">
   <properties>
    <property name="Color" type="color" value="#ffcacaca"/>
    <property name="IsBounds" type="bool" value="true"/>
   </properties>
  </tile>
  <tile id="787">
   <properties>
    <property name="Color" type="color" value="#ff00aa00"/>
    <property name="IsBounds" type="bool" value="true"/>
   </properties>
  </tile>
  <tile id="788">
   <properties>
    <property name="Color" type="color" value="#ff55aa00"/>
    <property name="IsBounds" type="bool" value="true"/>
   </properties>
  </tile>
 </tileset>
 <layer id="7" name="Слой тайлов 1" width="90" height="23">
  <data encoding="csv">
3,3,3,3,3,3,3,3,3,3,3,3,3,3,3,3,3,3,3,3,3,3,3,3,3,3,3,3,3,3,3,3,3,3,3,3,3,3,3,3,3,3,3,3,3,3,3,3,3,3,3,3,3,3,3,3,3,3,3,3,3,3,3,3,3,3,3,3,3,3,3,3,3,3,3,3,3,3,3,3,3,3,3,3,3,3,3,3,3,3,
3,3,0,0,0,0,0,0,0,0,0,0,0,0,0,0,0,0,0,0,0,3,3,0,0,3,3,0,3,3,0,3,3,0,0,0,0,0,0,0,0,0,0,0,0,0,0,0,0,0,0,0,0,0,0,0,0,0,0,0,0,0,0,0,0,0,0,0,0,0,0,0,0,0,0,0,0,0,0,0,0,0,0,0,0,0,0,0,0,3,
3,3,0,3,3,3,3,3,3,3,3,3,3,3,3,3,3,3,3,3,0,3,3,0,0,3,3,0,3,3,0,3,3,0,0,0,0,0,0,0,0,0,0,0,3,3,3,3,0,0,0,0,0,0,0,0,0,3,3,3,3,3,3,3,3,3,0,0,0,0,3,3,3,3,3,0,0,0,0,3,3,3,3,3,0,0,0,0,0,3,
3,3,0,0,3,3,3,3,0,0,0,0,0,0,0,3,3,3,3,0,0,3,3,0,0,3,3,0,3,3,0,3,3,0,0,0,0,3,3,3,3,0,0,0,3,0,0,0,0,0,0,0,0,0,0,0,0,0,0,0,0,0,0,0,3,3,0,0,0,0,3,0,0,0,3,0,0,0,0,3,0,0,0,3,0,0,0,0,0,3,
3,3,0,0,0,3,3,3,3,0,0,0,0,0,3,3,3,3,0,0,0,3,3,0,0,3,3,0,3,3,0,3,3,0,0,0,0,0,0,0,3,0,0,0,3,3,3,3,0,0,0,0,0,0,0,0,0,0,3,3,3,3,3,3,3,3,0,0,0,0,0,0,0,0,0,0,0,0,0,0,0,0,0,0,0,0,0,0,0,3,
3,3,0,0,0,0,3,3,3,3,0,0,0,3,3,3,3,0,0,0,0,3,3,0,0,3,3,0,3,3,0,3,3,0,0,0,0,3,3,3,3,0,0,0,0,0,0,0,0,0,0,3,3,3,3,0,0,0,0,0,0,0,0,0,0,0,0,0,0,0,0,0,0,0,0,3,3,3,3,3,3,0,0,0,0,0,0,0,0,3,
3,3,0,0,0,0,0,3,3,3,3,0,3,3,3,3,0,0,0,0,0,3,3,0,0,3,3,0,3,3,0,0,0,0,0,0,0,0,0,0,0,0,0,0,0,0,789,0,788,0,0,3,0,0,3,0,0,0,0,0,0,0,0,0,0,0,0,0,0,0,0,0,0,0,0,3,0,0,0,0,3,0,0,0,0,0,0,0,0,3,
3,3,0,0,0,0,0,0,0,3,3,0,3,3,0,0,0,0,0,0,0,3,3,0,0,3,3,0,3,3,0,0,0,0,0,0,0,3,3,0,3,3,0,0,0,0,0,789,788,789,789,0,0,0,0,0,0,0,0,0,0,3,3,3,3,3,3,0,0,0,0,0,0,0,0,0,0,0,0,0,0,0,0,0,0,0,0,0,0,3,
3,3,0,0,0,0,0,0,0,3,3,0,3,3,0,0,0,0,0,0,0,3,3,0,0,3,3,0,0,0,0,0,0,0,0,3,3,3,0,0,0,3,3,3,0,0,0,0,788,0,789,0,0,3,0,0,3,0,0,0,0,3,0,0,0,0,3,0,0,0,0,0,0,3,3,3,3,3,3,3,3,3,0,0,0,0,0,0,0,3,
3,3,0,0,0,0,0,0,0,0,0,0,0,0,0,0,0,0,0,0,0,3,3,0,0,3,3,0,0,0,0,0,0,3,3,3,0,0,0,0,0,0,0,3,3,3,0,0,0,0,0,0,0,3,3,3,3,0,0,0,0,0,0,0,0,0,0,0,0,0,0,0,3,3,0,0,0,0,0,0,0,3,3,0,0,0,0,0,0,3,
3,3,3,3,3,3,3,3,3,3,0,0,0,3,3,3,3,3,3,3,3,3,3,0,0,0,0,0,0,0,0,3,3,3,0,0,0,0,0,0,0,0,0,0,0,3,3,3,0,0,0,0,0,0,0,0,0,0,0,3,3,3,3,0,0,0,0,0,0,0,0,3,3,0,0,0,0,0,0,0,0,0,3,3,0,0,0,0,0,3,
3,0,0,0,0,0,0,0,0,0,0,0,0,0,0,0,0,0,789,789,789,0,0,0,0,0,0,0,0,0,0,0,0,0,0,0,0,0,0,0,0,0,0,0,0,0,0,0,0,0,0,0,0,789,788,788,0,0,0,3,0,0,3,0,0,0,0,0,0,0,3,3,0,0,3,0,3,3,3,0,3,0,0,3,3,0,0,0,0,3,
3,0,0,0,0,0,0,0,0,0,0,0,0,0,0,0,0,0,0,0,0,0,0,788,789,0,0,0,0,0,0,3,3,3,0,0,0,0,0,0,0,0,0,0,0,3,3,3,0,0,0,0,0,788,788,789,789,0,0,0,0,0,0,0,0,0,0,0,0,0,3,3,0,0,0,0,0,0,0,0,0,0,0,3,3,0,0,0,0,3,
3,0,0,0,0,0,0,0,0,0,0,0,0,0,0,0,0,0,788,0,0,0,0,0,789,789,789,789,0,0,0,0,0,3,3,3,0,0,0,0,0,0,0,3,3,3,0,0,0,0,0,0,0,0,0,0,0,0,0,0,0,0,0,0,0,0,0,0,0,0,0,0,0,0,3,0,0,0,0,0,3,0,0,0,0,0,0,0,0,3,
3,3,3,3,3,3,3,3,0,0,0,0,0,0,0,789,0,0,0,3,3,3,0,0,0,0,0,0,0,0,0,0,0,0,0,3,3,3,0,0,0,3,3,3,0,0,0,0,0,0,0,3,3,3,3,3,3,3,3,3,3,3,3,3,3,3,0,0,0,0,3,0,0,3,3,0,0,0,0,0,3,3,0,0,3,0,0,0,0,3,
3,3,0,0,0,0,0,0,0,0,0,0,0,0,789,789,0,0,0,3,3,3,789,789,789,0,0,0,0,0,0,0,0,0,0,0,0,3,3,0,3,3,0,0,0,0,0,0,0,0,0,0,0,0,0,0,0,0,0,0,0,0,0,0,3,3,0,0,0,0,3,0,0,0,0,0,0,0,0,0,0,0,0,0,3,0,0,0,0,3,
3,3,3,3,3,3,3,3,3,3,0,0,0,0,0,0,0,0,0,3,3,3,0,0,0,0,0,0,3,3,3,3,3,3,3,3,0,0,0,0,0,0,0,0,788,0,0,0,3,3,3,3,3,3,3,3,3,3,3,3,0,0,0,0,3,3,0,0,0,0,3,3,3,3,3,3,3,0,0,3,3,3,3,3,3,0,0,0,0,3,
3,3,0,0,0,0,0,0,0,0,0,0,0,0,0,0,0,0,0,3,3,3,0,0,0,0,0,0,0,0,0,0,0,0,3,3,0,0,0,0,0,788,788,788,0,0,0,0,3,0,0,0,0,0,0,0,0,0,0,3,0,0,0,0,3,3,0,0,0,0,0,0,0,0,3,3,3,0,0,3,3,3,0,0,0,0,0,0,0,3,
3,3,3,3,3,3,3,3,3,3,3,3,3,0,0,789,0,0,0,3,3,3,0,0,0,0,0,0,3,3,3,3,3,3,3,3,0,0,0,0,3,788,788,3,3,0,0,0,3,3,3,0,0,0,0,0,0,3,3,3,0,0,0,0,3,3,0,0,0,0,0,0,0,0,0,0,3,0,0,3,0,0,0,0,0,0,0,0,0,3,
3,3,0,0,0,0,0,0,0,0,0,0,0,0,788,788,0,0,0,3,3,3,0,0,0,0,0,0,0,0,0,0,0,0,3,3,0,0,0,0,3,3,0,0,3,3,0,0,0,0,3,3,3,0,0,3,3,3,0,0,0,0,0,0,3,3,3,3,3,3,3,3,3,3,0,0,0,0,0,0,0,0,0,3,3,3,3,3,0,3,
3,3,3,3,3,3,3,3,3,3,0,0,0,789,788,788,0,0,0,3,3,3,0,0,0,0,0,0,3,3,3,3,3,3,3,3,0,0,0,0,0,3,3,0,0,3,3,3,3,3,0,0,0,0,0,0,0,0,0,0,3,3,3,3,3,3,3,0,0,0,0,0,0,3,0,0,0,0,0,0,0,0,0,3,0,0,0,3,0,3,
3,3,0,0,0,0,0,0,0,0,0,0,0,0,0,0,0,0,0,3,3,3,0,0,0,0,0,0,0,0,0,0,0,0,3,3,0,0,0,0,0,0,3,0,0,0,0,0,0,0,0,0,0,0,0,0,0,0,0,0,0,0,0,0,3,3,3,0,0,0,0,0,0,0,0,0,0,0,0,0,0,0,0,0,0,0,0,0,0,3,
3,3,3,3,3,3,3,3,3,3,3,3,3,3,3,3,3,3,3,3,3,3,3,3,3,3,3,3,3,3,3,3,3,3,3,3,3,3,3,3,3,3,3,3,3,3,3,3,3,3,3,3,3,3,3,3,3,3,3,3,3,3,3,3,3,3,3,3,3,3,3,3,3,3,3,3,3,3,3,3,3,3,3,3,3,3,3,3,3,3
</data>
 </layer>
 <objectgroup id="2" name="Слой объектов 1">
  <object id="28" gid="32" x="720" y="408" width="16" height="34">
   <properties>
    <property name="Color" type="color" value="#ffff0000"/>
    <property name="IsBound" type="bool" value="false"/>
    <property name="idobj" value="player"/>
    <property name="type" value="player"/>
   </properties>
  </object>
  <object id="30" gid="474" x="624" y="272" width="16" height="34">
   <properties>
    <property name="Color" type="color" value="#ffde20ff"/>
    <property name="idobj" value="rat"/>
    <property name="type" value="spawner"/>
   </properties>
  </object>
  <object id="31" gid="82" x="160" y="136" width="16" height="34">
   <properties>
    <property name="Color" type="color" value="#ffab7138"/>
    <property name="class" value="bruiser"/>
    <property name="idobj" value="rat"/>
    <property name="race" value="animal"/>
    <property name="type" value="enemy"/>
   </properties>
  </object>
 </objectgroup>
 <objectgroup id="8" name="Areas">
  <object id="32" x="482.788" y="237.667" width="295.212" height="306.667">
   <properties>
    <property name="Color" type="color" value="#ffd6da07"/>
    <property name="NameToken" value="AreaMainSquare"/>
    <property name="type" value="area"/>
   </properties>
  </object>
  <object id="33" x="1106.18" y="274.545" width="255.212" height="370.667">
   <properties>
    <property name="Color" type="color" value="#ff1881c8"/>
    <property name="NameToken" value="AreaChapel"/>
    <property name="type" value="area"/>
   </properties>
  </object>
  <object id="34" x="768.394" y="554.667" width="193.212" height="130.667">
   <properties>
    <property name="Color" type="color" value="#ffc8b16d"/>
    <property name="NameToken" value="AreaSmith"/>
    <property name="type" value="area"/>
   </properties>
  </object>
  <object id="35" x="555.394" y="40.6665" width="807.212" height="186.667">
   <properties>
    <property name="Color" type="color" value="#ff7dc86c"/>
    <property name="NameToken" value="AreaUpperCommerce"/>
    <property name="type" value="area"/>
   </properties>
  </object>
  <object id="36" x="836.394" y="252.666" width="237.212" height="178.667">
   <properties>
    <property name="Color" type="color" value="#ff5b904e"/>
    <property name="NameToken" value="AreaLowerCommerce"/>
    <property name="type" value="area"/>
   </properties>
  </object>
  <object id="37" x="16.394" y="14.6665" width="335.212" height="342.667">
   <properties>
    <property name="Color" type="color" value="#ffaa0000"/>
    <property name="NameToken" value="AreaOldTemple"/>
    <property name="type" value="area"/>
   </properties>
  </object>
  <object id="38" x="8.394" y="492.666" width="329.212" height="274.667">
   <properties>
    <property name="Color" type="color" value="#ffe086e3"/>
    <property name="NameToken" value="AreaGuestMarket"/>
    <property name="type" value="area"/>
   </properties>
  </object>
 </objectgroup>
 <objectgroup id="3" name="Regions" visible="0">
  <object id="12" x="0" y="0" width="1440" height="782">
   <properties>
    <property name="Color" type="color" value="#ffaa5500"/>
    <property name="NameToken" value="RegionMarket"/>
    <property name="type" value="region"/>
   </properties>
  </object>
 </objectgroup>
</map>
